X:1
T:Squire Parsons
C:Carolan (1670-1738)
L:1/8
Q:1/4=104
M:4/4
I:linebreak $
K:G
V:1 treble 
V:1
|:"G""^A" G4 D2 GA |"Em" BABc B2 G2 |"G" d2 d2"D" d2 ef |"Em" ge"A7"ag"D" f2 d2 |"G" b4"D" a2 gf | %5
"Em" gefg"A7" a^cde |$"Bm" fgfg"D" fagf |"A7" Te3 d"D" d4 ::"D""^B" a4"Bm" f4 | %9
"Em" egfe"B7" ^d2 B2 |"B7" bfga"Em" bagf |"B7" f4"Em" e2"D7" Bc |"G" d2 d2"D" d2 cB |$ %13
"C" c2 c2"D7" c2 BA |"G" BAGA"Em" BcdB |"D7" A3 G"G" G4 :| %16
